X:1
T:Title
%%score ( 1 2 ) { 3 | 4 }
L:1/8
Q:1/4=115
M:3/4
K:Eb
V:1 treble nm="Grand Piano, Unnamed-000"
V:2 treble 
V:3 bass nm="Choir Pad, Hanover, 10.10.11.11"
V:4 bass 
V:1
 [CE]2 [EA]2 [EA]2 | [EB]2 [Ec]4 | [Ee]2 [FA]2 [FB]2 | [EG]2 [EA]4 | [EB]2 [Ec]2 [EB]2 | %5
w: By~Attributed~to~William~Croft,~1708 * *|||||
 A-[DA] [EG]4 | [EA]2 [EB]2 AG | [DF]2 E4 | [=EG]2 [FA]2 [GB]2 | [Gc]2 [FA]2 F2 | %10
w: |||||
 [E_d]2 [Ec]2 [EB]2 | [DA]2 [Ee]4 | E2 [EF]2 [_DG]2 | A-[DA] [EB]2 E2 | [Ec]2 [_DF]2 [FB]2 | %15
w: |||||
 G-[_DG] [CA]4- | [CA]4 z2 |] %17
w: ||
V:2
 x6 | x6 | x6 | x6 | x6 | .E2 z2 z2 | z2 z2 E2 | x6 | x6 | x6 | x6 | x6 | x6 | .C2 z2 z2 | x6 | %15
 .E2 z2 z2 | x6 |] %17
V:3
 A,2 C2 A,2 | G,2 A,4 | B,2[K:treble] C2 _D2 | B,2 C4 | G,2[K:bass] A,2 B,2 | CA, B,4 | %6
 C2 B,2 CB, | A,2 G,4 | C2 C2 _D2 | C2 C2[K:bass] A,2 | B,2 A,2 B,2 | B,A, G,4 | C2 C2 B,2 | %13
 A,2 G,2 B,2 | A,2 A,2 _D2 | B,2 A,4- | A,4 z2 |] %17
V:4
 A,,2 A,,2 C,2 | E,2 z2 z2 | G,2 F,2 _D,2 | E,2 A,,4 | E,2 z2 G,2 | F,2 E,4 | C,2 G,,2 A,,2 | %7
 B,,2 E,4 | C,2 F,2 F,2 | =E,2 F,2 F,2 | G,2 z2 G,2 | F,2 E,4 | C,2 _D,2 E,2 | F,2 E,2 G,2 | %14
 z2 _D,2 B,,2 | E,2 A,,4- | A,,4 z2 |] %17

